svg/navy-federal-credit-union-dark.svg

<svg xmlns="http://www.w3.org/2000/svg" xml:space="preserve" viewBox="0 0 512 512"><path d="M403 444.7h-7.6c17.8-20.2 32.7-44.3 43.9-71.2h25.2c-15.8 27.7-36.7 51.8-61.5 71.2m-23.3 16.2q-.15 0 0 0M47.6 373.5h25.2c11.2 26.9 26.2 51 44 71.2H109c-24.8-19.4-45.8-43.5-61.4-71.2m61.3-306.3h7.8c-13.3 15-25.1 32.3-34.9 51.4h-.2l-3.4 7.3-3.5 7.3.3.1c-.8 1.7-1.6 3.4-2.3 5.1H47.6c4.2-7.4 8.7-14.6 13.6-21.6 13.6-18.9 29.7-35.6 47.7-49.6m270.8-16.1c-.1 0 0 0 0 0m84.7 87.3h-25.2c-11.2-26.9-26.1-51-43.9-71.2h7.6c24.9 19.5 45.8 43.6 61.5 71.2M462.3 264h32.9c-1.1 33.2-9 64.9-22.4 93.4h-27.3c10.1-28.7 15.9-60.3 16.8-93.4M366 357.4c5.6-28.7 8.9-60.2 9.3-93.4H446c-.9 33.2-7.1 64.9-17.7 93.4zm-37.6 103.5h26.5c-14.3 10.9-29.7 19.5-46.1 25.5 6.9-7.2 13.5-15.7 19.6-25.5m-144.8 0c6 9.8 12.6 18.3 19.5 25.5-16.3-6-31.8-14.6-46-25.5zM65.9 264h70.8c.4 33.2 3.8 64.7 9.4 93.4H83.6C73 328.9 66.8 297.3 65.9 264m-16.2-16.1H17c1-32.6 8.6-64.2 22.3-93.3h27.2c-10.2 29.4-15.9 61-16.8 93.3m96.5-93.3c-5.8 29.3-9 61-9.5 93.3H66c.9-32.4 6.9-64.2 17.7-93.3zM328.4 51.1c-6.1-9.8-12.7-18.4-19.6-25.5 16.4 6 31.8 14.6 46.1 25.5zM264 247.9v-93.3h85.2c5.9 28.7 9.4 60.3 9.9 93.3zm0 109.5V264h95.1c-.5 33-4 64.7-9.9 93.4zm0 87.3v-71.2h81.4c-6.8 27.5-15.9 51.7-26.7 71.2zm0 16.2h44.8c-13.3 19-28.6 31.1-44.8 34.2zm-16.1 0V495c-16.2-3.1-31.4-15.2-44.8-34.2h44.8zm0-87.4v71.2h-54.7c-10.7-19.5-19.9-43.7-26.7-71.2zm0-109.5v93.4h-85.1c-5.9-28.7-9.4-60.4-9.9-93.4zm0-109.4v93.3h-95c.4-32.4 3.8-64.1 9.8-93.3zm70.9-87.4c10.7 19.5 19.8 43.8 26.7 71.2H264V67.2zM264 51.1V17c16.2 3 31.5 15.1 44.8 34.2H264zM247.9 17v34.1H203C216.7 31.9 232.1 20 247.9 17m-64.2 34.1h-26.1c14.1-10.8 29.3-19.2 45.2-25.2-6.8 7.1-13.2 15.5-19.1 25.2m-15.9 81.6c6.7-25.6 15.4-47.5 25.2-65.4h55v71.2h-81.6c.4-2 .8-4 1.4-5.8m278.3 115.2h-70.7c-.5-33.3-3.7-64.7-9.3-93.3h62.4c10.5 28.5 16.7 60.1 17.6 93.3m49 0h-32.9c-.9-33.1-6.7-64.6-16.8-93.3h27.3c13.5 28.5 21.3 60.1 22.4 93.3m-73.3-109.5h-59.3c-6.3-27-14.8-51-25-71.2h35.8c19.6 19.5 36.2 43.7 48.5 71.2m-329.1-5.6c12.2-25.6 27.9-47.6 46.2-65.5h35.8c-7.8 15.5-14.7 33.4-20.5 53.6l-.1-.1-2.1 7.8-2 7.8h.2c-.2.7-.4 1.4-.5 2.1H90.2c.9-1.9 1.6-3.8 2.5-5.7M16.9 264h32.8c.9 33 6.7 64.6 16.8 93.4H39.3c-13.4-28.5-21.4-60.1-22.4-93.4m73.3 109.5h59.3c6.4 27 14.9 51 25.2 71.2h-35.9c-19.6-19.4-36.2-43.5-48.6-71.2m283 71.2h-35.8c10.2-20.2 18.7-44.2 25-71.2h59.3c-12.2 27.7-28.8 51.8-48.5 71.2M511.5 256C511.5 122.8 409 13.1 278.7 1.6 271.2.5 263.7 0 256 0c-7.2 0-14.3.6-21.4 1.5-71.5 6-137.8 42.2-181.7 99.5l-.2-.2-4.7 6.6-4.7 6.6.2.2C15.5 156.3.5 205 .5 256 .5 389.2 103 498.9 233.3 510.4c7.5 1 15.1 1.6 22.7 1.6 7.7 0 15.2-.5 22.7-1.6C409 498.9 511.5 389.2 511.5 256" style="fill:#003767"/></svg>

<?xml version="1.0" encoding="utf-8"?>
<!-- Generator: Adobe Illustrator 28.2.0, SVG Export Plug-In . SVG Version: 6.00 Build 0)  -->
<svg version="1.1" id="Layer_1" xmlns="http://www.w3.org/2000/svg" xmlns:xlink="http://www.w3.org/1999/xlink" x="0px" y="0px"
	 viewBox="0 0 512 512" style="enable-background:new 0 0 512 512;" xml:space="preserve">
<style type="text/css">
	.st0{fill:#003767;}
</style>
<path class="st0" d="M403,444.7h-7.6c17.8-20.2,32.7-44.3,43.9-71.2h25.2C448.7,401.2,427.8,425.3,403,444.7 M379.7,460.9
	L379.7,460.9C379.6,460.9,379.6,460.9,379.7,460.9 M132.4,460.9L132.4,460.9L132.4,460.9C132.4,460.9,132.4,460.9,132.4,460.9
	 M47.6,373.5h25.2c11.2,26.9,26.2,51,44,71.2H109C84.2,425.3,63.2,401.2,47.6,373.5 M108.9,67.2h7.8c-13.3,15-25.1,32.3-34.9,51.4
	l-0.2,0l-3.4,7.3l-3.5,7.3l0.3,0.1c-0.8,1.7-1.6,3.4-2.3,5.1H47.6c4.2-7.4,8.7-14.6,13.6-21.6C74.8,97.9,90.9,81.2,108.9,67.2
	 M379.7,51.1L379.7,51.1C379.6,51.1,379.7,51.1,379.7,51.1 M464.4,138.4h-25.2c-11.2-26.9-26.1-51-43.9-71.2h7.6
	C427.8,86.7,448.7,110.8,464.4,138.4 M462.3,264h32.9c-1.1,33.2-9,64.9-22.4,93.4h-27.3C455.6,328.7,461.4,297.1,462.3,264
	 M366,357.4c5.6-28.7,8.9-60.2,9.3-93.4h70.7c-0.9,33.2-7.1,64.9-17.7,93.4H366z M328.4,460.9h26.5c-14.3,10.9-29.7,19.5-46.1,25.5
	C315.7,479.2,322.3,470.7,328.4,460.9 M183.6,460.9c6,9.8,12.6,18.3,19.5,25.5c-16.3-6-31.8-14.6-46-25.5H183.6z M65.9,264h70.8
	c0.4,33.2,3.8,64.7,9.4,93.4H83.6C73,328.9,66.8,297.3,65.9,264 M49.7,247.9H17c1-32.6,8.6-64.2,22.3-93.3h27.2
	C56.3,184,50.6,215.6,49.7,247.9 M146.2,154.6c-5.8,29.3-9,61-9.5,93.3H66c0.9-32.4,6.9-64.2,17.7-93.3H146.2z M328.4,51.1
	c-6.1-9.8-12.7-18.4-19.6-25.5c16.4,6,31.8,14.6,46.1,25.5H328.4z M264,247.9v-93.3h85.2c5.9,28.7,9.4,60.3,9.9,93.3H264z
	 M264,357.4V264h95.1c-0.5,33-4,64.7-9.9,93.4H264z M264,444.7v-71.2h81.4c-6.8,27.5-15.9,51.7-26.7,71.2L264,444.7z M264,460.9
	h44.8c-13.3,19-28.6,31.1-44.8,34.2V460.9z M247.9,460.9V495c-16.2-3.1-31.4-15.2-44.8-34.2H247.9z M247.9,373.5v71.2h-54.7
	c-10.7-19.5-19.9-43.7-26.7-71.2L247.9,373.5z M247.9,264v93.4h-85.1c-5.9-28.7-9.4-60.4-9.9-93.4H247.9z M247.9,154.6v93.3h-95
	c0.4-32.4,3.8-64.1,9.8-93.3L247.9,154.6z M318.8,67.2c10.7,19.5,19.8,43.8,26.7,71.2H264V67.2L318.8,67.2z M264,51.1V17
	c16.2,3,31.5,15.1,44.8,34.2H264z M247.9,17v34.1H203C216.7,31.9,232.1,20,247.9,17 M183.7,51.1h-26.1
	c14.1-10.8,29.3-19.2,45.2-25.2C196,33,189.6,41.4,183.7,51.1 M167.8,132.7c6.7-25.6,15.4-47.5,25.2-65.4h55v71.2h-81.6
	C166.8,136.5,167.2,134.5,167.8,132.7 M446.1,247.9h-70.7c-0.5-33.3-3.7-64.7-9.3-93.3h62.4C439,183.1,445.2,214.7,446.1,247.9
	 M495.1,247.9h-32.9c-0.9-33.1-6.7-64.6-16.8-93.3h27.3C486.2,183.1,494,214.7,495.1,247.9 M421.8,138.4h-59.3
	c-6.3-27-14.8-51-25-71.2h35.8C392.9,86.7,409.5,110.9,421.8,138.4 M92.7,132.8c12.2-25.6,27.9-47.6,46.2-65.5h35.8
	c-7.8,15.5-14.7,33.4-20.5,53.6l-0.1-0.1l-2.1,7.8l-2,7.8h0.2c-0.2,0.7-0.4,1.4-0.5,2.1H90.2C91.1,136.6,91.8,134.7,92.7,132.8
	 M16.9,264h32.8c0.9,33,6.7,64.6,16.8,93.4H39.3C25.9,328.9,17.9,297.3,16.9,264 M90.2,373.5h59.3c6.4,27,14.9,51,25.2,71.2h-35.9
	C119.2,425.3,102.6,401.2,90.2,373.5 M373.2,444.7h-35.8c10.2-20.2,18.7-44.2,25-71.2h59.3C409.5,401.2,392.9,425.3,373.2,444.7
	 M511.5,256C511.5,122.8,409,13.1,278.7,1.6C271.2,0.5,263.7,0,256,0c-7.2,0-14.3,0.6-21.4,1.5C163.1,7.5,96.8,43.7,52.9,101
	l-0.2-0.2l-4.7,6.6l-4.7,6.6l0.2,0.2C15.5,156.3,0.5,205,0.5,256c0,133.2,102.5,242.9,232.8,254.4c7.5,1,15.1,1.6,22.7,1.6
	c7.7,0,15.2-0.5,22.7-1.6C409,498.9,511.5,389.2,511.5,256"/>
</svg>
